icons/signal-wifi-1-line.svg

<svg viewBox="0 0 24 24" fill="currentColor" xmlns="http://www.w3.org/2000/svg"><path d="M12.0005 3C16.2849 3 20.2196 4.49683 23.3104 6.99607L12.0005 21L0.689941 6.99671C3.78078 4.49709 7.71583 3 12.0005 3ZM12.0005 15C11.3072 15 10.6331 15.1174 10.0002 15.3409L12.0005 17.8169L13.9999 15.34C13.3705 15.12 12.6939 15 12.0005 15ZM12.0005 5C8.97296 5 6.07788 5.84185 3.57997 7.39179L8.68885 13.7155C9.69799 13.256 10.8194 13 12.0005 13C13.1818 13 14.3032 13.256 15.3123 13.7155L20.4204 7.39132C17.9226 5.84167 15.0278 5 12.0005 5Z"/></svg>

<svg xmlns="http://www.w3.org/2000/svg" viewBox="0 0 24 24">
    <g>
        <path fill="none" d="M0 0H24V24H0z"/>
        <path d="M12 3c4.284 0 8.22 1.497 11.31 3.996L12 21 .69 6.997C3.78 4.497 7.714 3 12 3zm0 12c-.693 0-1.367.117-2 .34l2 2.477 2-2.477c-.63-.22-1.307-.34-2-.34zm0-10c-3.028 0-5.923.842-8.42 2.392l5.108 6.324C9.698 13.256 10.818 13 12 13c1.181 0 2.303.256 3.312.716L20.42 7.39C17.922 5.841 15.027 5 12 5z"/>
    </g>
</svg>
